svgs/sharp-regular/container-storage.svg

<svg xmlns="http://www.w3.org/2000/svg" viewBox="0 0 640 512"><!--! Font Awesome Pro 6.6.0 by @fontawesome - https://fontawesome.com License - https://fontawesome.com/license (Commercial License) Copyright 2024 Fonticons, Inc. --><path d="M24 32L0 32 0 80l24 0 8 0 0 352-8 0L0 432l0 48 24 0 8 0 48 0 480 0 48 0 8 0 24 0 0-48-24 0-8 0 0-352 8 0 24 0 0-48-24 0-8 0-48 0L80 32 32 32l-8 0zM80 432L80 80l480 0 0 352L80 432zm96-280l0-24-48 0 0 24 0 208 0 24 48 0 0-24 0-208zm112 0l0-24-48 0 0 24 0 208 0 24 48 0 0-24 0-208zm112 0l0-24-48 0 0 24 0 208 0 24 48 0 0-24 0-208zm112 0l0-24-48 0 0 24 0 208 0 24 48 0 0-24 0-208z"/></svg>

<svg xmlns="http://www.w3.org/2000/svg" viewBox="0 0 640 512"><!--! Font Awesome Pro 6.4.0 by @fontawesome - https://fontawesome.com License - https://fontawesome.com/license (Commercial License) Copyright 2023 Fonticons, Inc. --><path d="M24 32H0V80H24h8V432H24 0v48H24h8H80 560h48 8 24V432H616h-8V80h8 24V32H616h-8H560 80 32 24zM80 432V80H560V432H80zm96-280V128H128v24V360v24h48V360 152zm112 0V128H240v24V360v24h48V360 152zm112 0V128H352v24V360v24h48V360 152zm112 0V128H464v24V360v24h48V360 152z"/></svg>
